X:100
T:Sylph,The. RH.100
R:Jig
S:Rev.R.Harrison’s MS,c1815,Cumbria
O:England
A:Temple Sowerby,Cumbria
Z:vmp.Simon Wilson. Review PJH, 2008.
M:6/8
L:1/8
Q:3/8=120
K:D
A|AFA dfa|agf e2g|fag fed|cee e2A|!
AFA dfa|agf e2g|fae ege/c/|ddd d2:|!
|:A/G/|FAd dcB|BAG F2D|(F/G/)AD (F/G/)AD|!
CEE E2(A/G/)|FAd dcB|BAG F2D|(F/G/)AF GEC|DDD D2:|

